apps/ledger-live-desktop/src/newArch/features/NftEntryPoint/assets/magiceden.svg

<svg width="48" height="48" viewBox="0 0 48 48" fill="none" xmlns="http://www.w3.org/2000/svg">
<rect width="48" height="48" rx="14" fill="#15111D"/>
<rect x="0.5" y="0.5" width="47" height="47" rx="13.5" stroke="white" stroke-opacity="0.1"/>
<path d="M30.5475 19.4655L32.246 21.4612C32.4404 21.6854 32.6129 21.8697 32.6826 21.9746C33.1906 22.4794 33.4754 23.1617 33.475 23.8727C33.4273 24.7114 32.8807 25.2827 32.3744 25.8936L31.1858 27.2892L30.5659 28.0122C30.5436 28.0372 30.5293 28.068 30.5246 28.1009C30.5199 28.1338 30.5251 28.1672 30.5396 28.1973C30.554 28.2272 30.577 28.2524 30.6058 28.2697C30.6347 28.2869 30.6679 28.2954 30.7015 28.2943H36.8978C37.8442 28.2943 39.0365 29.0896 38.9668 30.2972C38.9649 30.846 38.7427 31.3719 38.3489 31.7599C37.9552 32.148 37.4216 32.3669 36.8647 32.3688H27.1615C26.5231 32.3688 24.8062 32.4375 24.3257 30.9733C24.2234 30.6673 24.2095 30.3394 24.2853 30.0261C24.425 29.5627 24.6459 29.1271 24.9383 28.739C25.4262 28.0159 25.9545 27.2928 26.4754 26.5915C27.1468 25.6731 27.8365 24.7838 28.5151 23.8473C28.5392 23.8169 28.5523 23.7793 28.5523 23.7407C28.5523 23.7021 28.5392 23.6645 28.5151 23.634L26.0498 20.7417C26.0338 20.7208 26.013 20.7038 25.9891 20.6921C25.9653 20.6803 25.939 20.6743 25.9123 20.6743C25.8856 20.6743 25.8593 20.6803 25.8354 20.6921C25.8116 20.7038 25.7908 20.7208 25.7747 20.7417C25.1144 21.6203 22.2236 25.5104 21.6072 26.2986C20.9909 27.0867 19.4722 27.1301 18.6321 26.2986L14.7764 22.4844C14.7518 22.46 14.7204 22.4434 14.6862 22.4367C14.652 22.4299 14.6165 22.4334 14.5843 22.4465C14.552 22.4597 14.5245 22.482 14.5052 22.5106C14.4858 22.5393 14.4755 22.5729 14.4756 22.6073V29.9429C14.4847 30.4634 14.3283 30.9737 14.0283 31.4023C13.7283 31.8308 13.2998 32.1561 12.8028 32.3327C12.4852 32.4415 12.1458 32.4741 11.8129 32.4275C11.4799 32.3809 11.1631 32.2566 10.8889 32.0648C10.6146 31.873 10.3909 31.6194 10.2362 31.3252C10.0816 31.0309 10.0006 30.7044 10 30.3731V17.1842C10.0221 16.7089 10.1956 16.2526 10.4959 15.88C10.7963 15.5075 11.2081 15.2377 11.6729 15.109C12.0715 15.0043 12.4912 15.0054 12.8894 15.112C13.2875 15.2187 13.65 15.4272 13.94 15.7164L19.8684 21.5661C19.8861 21.5838 19.9076 21.5975 19.9313 21.6062C19.9551 21.6149 19.9804 21.6183 20.0056 21.6162C20.0308 21.6141 20.0552 21.6066 20.0772 21.5942C20.0991 21.5818 20.118 21.5648 20.1325 21.5444L24.344 15.7995C24.5386 15.5663 24.7826 15.3778 25.0589 15.2473C25.3352 15.1168 25.6371 15.0474 25.9435 15.0439H36.8978C37.1975 15.0444 37.4938 15.108 37.7666 15.2304C38.0395 15.3527 38.2827 15.5311 38.4799 15.7536C38.6772 15.9761 38.8239 16.2375 38.9105 16.5204C38.9969 16.8033 39.0212 17.1011 38.9814 17.3939C38.9043 17.9019 38.6428 18.3651 38.2454 18.6975C37.848 19.0299 37.3418 19.209 36.8207 19.2016H30.6869C30.6561 19.2023 30.626 19.2112 30.5998 19.2273C30.5737 19.2434 30.5524 19.2661 30.5382 19.293C30.5239 19.32 30.5173 19.3502 30.5189 19.3805C30.5206 19.4109 30.5304 19.4402 30.5475 19.4655Z" fill="#EC136D"/>
</svg>

<svg xmlns="http://www.w3.org/2000/svg" width="48" height="48" fill="none" viewBox="0 0 48 48"><rect width="48" height="48" fill="#15111d" rx="14"/><rect width="47" height="47" x=".5" y=".5" stroke="#fff" stroke-opacity=".1" rx="13.5"/><path fill="#ec136d" d="m30.548 19.466 1.698 1.995c.194.224.367.409.437.514.508.504.792 1.187.792 1.898-.048.838-.594 1.41-1.1 2.02l-1.19 1.396-.62.723a.169.169 0 0 0 .136.282h6.197c.946 0 2.138.796 2.069 2.003a2.06 2.06 0 0 1-.618 1.463 2.13 2.13 0 0 1-1.484.609H27.16c-.638 0-2.355.069-2.835-1.396a1.7 1.7 0 0 1-.04-.947c.139-.463.36-.899.652-1.287a59 59 0 0 1 1.537-2.148c.672-.918 1.361-1.807 2.04-2.744a.17.17 0 0 0 0-.213l-2.465-2.892a.17.17 0 0 0-.138-.068.17.17 0 0 0-.137.068c-.66.878-3.551 4.768-4.168 5.557-.616.788-2.135.831-2.975 0l-3.856-3.815a.18.18 0 0 0-.192-.038.18.18 0 0 0-.108.161v7.336c.009.52-.148 1.03-.448 1.46-.3.428-.728.753-1.225.93a2.14 2.14 0 0 1-1.914-.268 2.1 2.1 0 0 1-.653-.74 2.06 2.06 0 0 1-.236-.952V17.184c.022-.475.196-.931.496-1.304a2.3 2.3 0 0 1 1.177-.771 2.4 2.4 0 0 1 1.216.003c.399.107.761.315 1.051.604l5.928 5.85a.174.174 0 0 0 .265-.022l4.211-5.744a2.1 2.1 0 0 1 1.599-.756h10.955a2.13 2.13 0 0 1 1.582.71 2.05 2.05 0 0 1 .502 1.64 2.1 2.1 0 0 1-.737 1.304 2.17 2.17 0 0 1-1.424.504h-6.134a.17.17 0 0 0-.149.091.17.17 0 0 0 .01.172"/></svg>
